X: 29570
T: Nonesuch
R: polka
M: 2/4
K: Ddorian
a|af ga|fe/f/ da|af ga|f2d:|
|:f|ec de|fe/f/ df|ec de|f2d:|

